X:1
T:Linby, 76.76
T:Linby, 76.76
T:John Adcock, 1874
T:Public Domain Courtesy of the Cyber Hymnal™
C:John Adcock, 1874
Z:Public Domain
Z:Courtesy of the Cyber Hymnal™
%%score ( 1 2 ) ( 3 4 )
L:1/8
Q:1/4=110
M:4/4
K:D
V:1 treble 
V:2 treble 
V:3 bass 
V:4 bass 
V:1
 A2 | d3 A F2 B2 | A4 D2 (E[^DF]) | [EG]2 [^DF]2 E2 x2 | =D2 x6 | [CA]4 z2 [DA]2 | %6
 [DB]2 d2 [Fc]2 [GB]2 | A4 [DF]2 D2 | [DE]2 [DG]2 [CF]2 [CE]2 | D6 |] %10
V:2
 A2 | d3 A F2 B2 | A4 ^D2 E x | x4 E2 x2 | =D2 x6 | x8 | x2 (DE) x4 | A4 D2 x2 | x8 | D6 |] %10
V:3
 A,2 | D3 A, F,2 B,2 | A,4 D,2 B,2 | [E,B,]2 [F,B,]2 [G,B,]2 [^G,B,]2 | A,4 z2 [F,D]2 | %5
 [G,D]2 [B,D]2 [A,D]2 [G,C]2 | [F,C]4 [D,A,]2 [B,,B,]2 | [G,,G,B,]2 [E,,E,B,]2 [E,A,]2 [A,,G,]2 | %8
 [D,F,]6 x2 | x6 |] %10
V:4
 A,2 | D3 A, F,2 B,2 | A,4 D,2 (G,F,) | x8 | A,4 x4 | x8 | x8 | x8 | x8 | x6 |] %10

